content/images/project/python-agent.svg

<svg width="36" height="36" viewBox="0 0 36 36" fill="none" xmlns="http://www.w3.org/2000/svg">
<g clip-path="url(#clip0_247_640)">
<path d="M0 4C0 1.79086 1.79086 0 4 0H32C34.2091 0 36 1.79086 36 4V32C36 34.2091 34.2091 36 32 36H4C1.79086 36 0 34.2091 0 32V4Z" fill="#194B74"/>
<path d="M13.1346 -0.611826C34.2844 -21.7001 51.367 -28.9999 51.367 -28.9999C51.367 -28.9999 68 6.60387 68 17.8468C68 29.0897 56.5258 28.9048 56.5258 28.9048H36.1031C23.8563 28.9048 24.244 40.9222 24.244 40.9222V50.9967H17.0515C17.0515 50.9967 5 51.7666 5 30.0562C5 8.34565 5.22721 7.2725 13.1346 -0.611826Z" fill="#387BB3"/>
<path d="M28.5576 52.9756C41.8205 52.9756 40.9923 47.2235 40.9923 47.2235L40.9775 41.2643H28.321V39.4751H46.0046C46.0046 39.4751 54.4916 40.4377 54.4916 27.0541C54.4916 13.6705 47.084 14.1451 47.084 14.1451H42.6631V20.3556C42.6631 20.3556 42.9014 27.7639 35.3737 27.7639C27.8461 27.7639 22.8207 27.7639 22.8207 27.7639C22.8207 27.7639 15.768 27.6499 15.768 34.5807C15.768 41.5114 15.768 46.0405 15.768 46.0405C15.768 46.0405 14.6972 52.9756 28.5576 52.9756ZM35.5364 48.9683C34.2772 48.9683 33.2594 47.9505 33.2594 46.6911C33.2594 45.4318 34.2772 44.4139 35.5364 44.4139C36.7956 44.4139 37.8134 45.4318 37.8134 46.6911C37.8134 47.9505 36.7956 48.9683 35.5364 48.9683Z" fill="url(#paint0_linear_247_640)"/>
<path d="M15.2438 8.6913C15.657 8.5981 16.0846 8.53966 16.5132 8.51669C20.8123 8.28626 24.4818 11.6444 24.7057 16.014C24.7823 17.5095 24.4285 18.9933 23.716 20.2832C26.7505 19.1878 28.8051 16.1957 28.63 12.7803C28.417 8.62241 24.9184 5.42069 20.8277 5.63995C18.591 5.75983 16.5468 6.9087 15.2438 8.6913Z" fill="white"/>
</g>
<defs>
<linearGradient id="paint0_linear_247_640" x1="23.1593" y1="22.0322" x2="50.9068" y2="48.6135" gradientUnits="userSpaceOnUse">
<stop stop-color="#FFE052"/>
<stop offset="1" stop-color="#FFC331"/>
</linearGradient>
<clipPath id="clip0_247_640">
<path d="M0 4C0 1.79086 1.79086 0 4 0H32C34.2091 0 36 1.79086 36 4V32C36 34.2091 34.2091 36 32 36H4C1.79086 36 0 34.2091 0 32V4Z" fill="white"/>
</clipPath>
</defs>
</svg>

<svg xmlns="http://www.w3.org/2000/svg" width="36" height="36" fill="none" viewBox="0 0 36 36"><g clip-path="url(#a)"><path fill="#194B74" d="M0 4a4 4 0 0 1 4-4h28a4 4 0 0 1 4 4v28a4 4 0 0 1-4 4H4a4 4 0 0 1-4-4V4Z"/><path fill="#387BB3" d="M13.135-.612C34.285-21.7 51.367-29 51.367-29S68 6.604 68 17.847c0 11.243-11.474 11.058-11.474 11.058H36.103c-12.247 0-11.859 12.017-11.859 12.017v10.075h-7.192S5 51.767 5 30.057c0-21.712.227-22.785 8.135-30.67Z"/><path fill="url(#b)" d="M28.558 52.976c13.263 0 12.434-5.752 12.434-5.752l-.014-5.96H28.32v-1.789h17.684s8.487.963 8.487-12.42c0-13.384-7.408-12.91-7.408-12.91h-4.42v6.21s.237 7.409-7.29 7.409H22.82s-7.053-.114-7.053 6.817v11.46s-1.07 6.935 12.79 6.935Zm6.978-4.008a2.275 2.275 0 0 1-2.277-2.277 2.275 2.275 0 0 1 2.277-2.277 2.275 2.275 0 0 1 2.277 2.277 2.275 2.275 0 0 1-2.277 2.277Z"/><path fill="#fff" d="M15.244 8.691a7.65 7.65 0 0 1 1.27-.174c4.298-.23 7.968 3.127 8.192 7.497a8.006 8.006 0 0 1-.99 4.27c3.034-1.096 5.09-4.088 4.914-7.504-.213-4.158-3.712-7.36-7.802-7.14-2.237.12-4.281 1.269-5.584 3.051Z"/></g><defs><linearGradient id="b" x1="23.159" x2="50.907" y1="22.032" y2="48.614" gradientUnits="userSpaceOnUse"><stop stop-color="#FFE052"/><stop offset="1" stop-color="#FFC331"/></linearGradient><clipPath id="a"><path fill="#fff" d="M0 4a4 4 0 0 1 4-4h28a4 4 0 0 1 4 4v28a4 4 0 0 1-4 4H4a4 4 0 0 1-4-4V4Z"/></clipPath></defs></svg>
